Pods/ProtonCore-UIFoundations/libraries/UIFoundations/Sources/Assets.xcassets/Images/IconSet/ic-text-align-right.imageset/ic-text-align-right.svg

<svg width="24" height="24" viewBox="0 0 24 24" fill="none" xmlns="http://www.w3.org/2000/svg">
<path fill-rule="evenodd" clip-rule="evenodd" d="M22.5 3.75C22.5 3.33579 22.1642 3 21.75 3L12.75 3C12.3358 3 12 3.33579 12 3.75C12 4.16421 12.3358 4.5 12.75 4.5L21.75 4.5C22.1642 4.5 22.5 4.16421 22.5 3.75ZM1.5 9C1.5 9.41421 1.83579 9.75 2.25 9.75L21.75 9.75C22.1642 9.75 22.5 9.41422 22.5 9C22.5 8.58579 22.1642 8.25 21.75 8.25L2.25 8.25C1.83579 8.25 1.5 8.58578 1.5 9ZM22.5 15C22.5 14.5858 22.1642 14.25 21.75 14.25L12.75 14.25C12.3358 14.25 12 14.5858 12 15C12 15.4142 12.3358 15.75 12.75 15.75L21.75 15.75C22.1642 15.75 22.5 15.4142 22.5 15ZM1.5 20.25C1.5 20.6642 1.83579 21 2.25 21H21.75C22.1642 21 22.5 20.6642 22.5 20.25C22.5 19.8358 22.1642 19.5 21.75 19.5L2.25 19.5C1.83579 19.5 1.5 19.8358 1.5 20.25Z" fill="#0C0C14"/>
</svg>

<svg xmlns="http://www.w3.org/2000/svg" width="24" height="24" viewBox="0 0 24 24">
  <g class="ic-text-align-right">
    <path fill-rule="evenodd" d="M22.5 3.75a.75.75 0 0 0-.75-.75h-9a.75.75 0 0 0 0 1.5h9a.75.75 0 0 0 .75-.75ZM1.5 9c0 .414.336.75.75.75h19.5a.75.75 0 0 0 0-1.5H2.25A.75.75 0 0 0 1.5 9Zm21 6a.75.75 0 0 0-.75-.75h-9a.75.75 0 0 0 0 1.5h9a.75.75 0 0 0 .75-.75Zm-21 5.25c0 .414.336.75.75.75h19.5a.75.75 0 0 0 0-1.5H2.25a.75.75 0 0 0-.75.75Z" class="Icon"/>
  </g>
</svg>
